icons/svg/code-less-than.svg

﻿<?xml version="1.0" encoding="utf-8"?>
<!DOCTYPE svg PUBLIC "-//W3C//DTD SVG 1.1//EN" "http://www.w3.org/Graphics/SVG/1.1/DTD/svg11.dtd">
<svg xmlns="http://www.w3.org/2000/svg" xmlns:xlink="http://www.w3.org/1999/xlink" version="1.1" baseProfile="full" width="24" height="24" viewBox="0 0 24.00 24.00" enable-background="new 0 0 24.00 24.00" xml:space="preserve">
	<path fill="#0D0E0E" fill-opacity="1" stroke-linejoin="round" d="M 13.5918,7.40625L 8.99414,12.002L 13.5918,16.5977L 15.0059,15.1836L 11.8223,12.002L 15.0059,8.82031M 19,3C 20.106,3 21,3.896 21,5L 21,19C 21,20.104 20.106,21 19,21L 5,21C 3.897,21 3,20.104 3,19L 3,5C 3,3.896 3.897,3 5,3L 19,3 Z "/>
</svg>

<svg xmlns="http://www.w3.org/2000/svg" version="1.1" baseProfile="full" width="24" height="24" viewBox="0 0 24.00 24.00" xml:space="preserve"><path fill="#0D0E0E" fill-opacity="1" stroke-linejoin="round" d="M13.592 7.406l-4.598 4.596 4.598 4.596 1.414-1.414-3.184-3.182 3.184-3.182M19 3c1.106 0 2 .896 2 2v14c0 1.104-.894 2-2 2H5c-1.103 0-2-.896-2-2V5c0-1.104.897-2 2-2h14z"/></svg>
